rospo-newyear-dark/symbolic/status/call-missed-symbolic.svg

<svg height="16" width="16" xmlns="http://www.w3.org/2000/svg"><path d="m8 1 1.79 1.79-1.79 1.8-3-3-1.41 1.41 3.7 3.71c.3912.3943 1.0288.3943 1.42 0l2.501-2.5 1.789 1.79v-5z" fill="#d3dae3" opacity=".3"/><path d="m8.14 8.01c-2.67-.04-5.25 1.01-7.15 2.9l-.7.71c-.39.38-.39 1.01 0 1.4l2.1 2.1c.39.39 1.02.39 1.41 0l1.2-1.2v-2.26l.2-.08c1.78-.79 3.82-.79 5.601.01l.2.07v2.26l.5.5.71.7c.379.39 1.01.39 1.399 0l2.101-2.1c.389-.39.389-1.02 0-1.4l-.701-.71c-1.83-1.82-4.289-2.86-6.87-2.9z" fill="#d3dae3"/></svg>

<svg xmlns="http://www.w3.org/2000/svg" width="16" height="16" version="1.1">
 <path style="opacity:0.3;fill:#d3dae3" d="M 8,1 9.79,2.79 8,4.59 5,1.59 3.59,3 7.29,6.71 C 7.6812,7.1043 8.3188,7.1043 8.71,6.71 L 11.211,4.21 13,6 V 1 Z"/>
 <path style="fill:#d3dae3" d="M 8.14,8.01 C 5.47,7.97 2.89,9.02 0.99,10.91 L 0.29,11.62 C -0.1,12 -0.1,12.63 0.29,13.02 L 2.39,15.12 C 2.78,15.51 3.41,15.51 3.8,15.12 L 5,13.92 V 11.66 11.66 L 5.2,11.58 C 6.98,10.79 9.02,10.79 10.801,11.59 L 11.001,11.66 V 11.66 13.92 L 11.501,14.42 12.211,15.12 C 12.59,15.51 13.221,15.51 13.61,15.12 L 15.711,13.02 C 16.1,12.63 16.1,12 15.711,11.62 L 15.01,10.91 C 13.18,9.09 10.721,8.05 8.14,8.01 Z"/>
</svg>
